!!!!SEGMENT: pl-kozmzk--mzk-m-159--042_walczynski-franciszek--praeludia-organi-op-5-allegro-moderato.krn
!!!cenid: 18xx:2785
!!!COM: Walczyński, Franciszek
!!!COM-rismid: pe30021989
!!!CDT: ~1852-1937
!!!CNT: Polish
!!!GTL: Praeludia organi op. 5
!!!OTL: 42. Allegro moderato
!!!PDT: 1894
!!!AGN: Secular; Prelude
!!!SMS-siglum: PL-KOZmzk
!!!SMS-shelfmark: mzk/m/159
!!!SMS-shelfwork: 042 G
!!!SMS-variant:
!!!SMS-altvar:
!!!NIFC-rismid: 1001118845
!!!URL-scan: https://repozytorium.nifc.pl/islandora/object/pl-kozmzk%3A2265/datastream/PDF/view
!!!ONB-nifc: UWAGA: numeracja plików zgodna z numeracją źrodłową
!!!OMD: 42. Allegro moderato.
!!!AIN: 1 empty 1 organ
!!!key:
**kern	**kern	**dynam
*part2	*part1	*part1
*staff2	*staff1	*
*Iorgan	*Iempty	*
*I"[Organo]	*	*
*clefF4	*clefG2	*
*k[b-]	*k[b-]	*
*g:	*g:	*
*M3/4	*M3/4	*
=1	=1	=1
*^	*^	*
2.re	8r	2.rg	2.r	.
!	!	!	!	!LO:DY:b=2
.	(8A\	.	.	fp
.	4B-\	.	.	.
.	4C#X\	.	.	.
=2	=2	=2	=2	=2
2.re	4.D\	2.rg	2.r	.
.	8F\L	.	.	.
.	8E\	.	.	.
.	8D\J)	.	.	.
=3	=3	=3	=3	=3
2.re	(8C#X\L	2.rg	2.r	.
.	8E\J	.	.	.
.	4.A^\	.	.	.
.	8G\	.	.	.
=4	=4	=4	=4	=4
2.re	8F\L	2.rg	2.r	.
.	8G\	.	.	.
.	8E\	.	.	.
.	8F\J	.	.	.
.	4D\)	.	.	.
=5	=5	=5	=5	=5
8r	4.F#X\	2.rg	2.r	.
(8d/	.	.	.	.
4e-X/	.	.	.	.
.	8E-X\L	.	.	.
4F#/	8D\	.	.	.
.	8C\J	.	.	.
=6	=6	=6	=6	=6
4.G/	8BB-\L	2.rg	2.r	.
.	8AA\	.	.	.
.	8BB-\	.	.	.
8B-/L	8GG\	.	.	.
8A/	8AA\	.	.	.
8G/J)	8BB-\J	.	.	.
=7	=7	=7	=7	=7
(8F#X/L	(8D\L	2.rg	2.r	.
8A/J	8E-X\	.	.	.
4.d^/	8D\	.	.	.
.	8C\	.	.	.
.	8BB-\	.	.	.
8c/	8AA\J	.	.	.
=8	=8	=8	=8	=8
8B-/L	4GG\	2.rg	2.r	.
8c/	.	.	.	.
8A/	4AA\	.	.	.
8B-/J	.	.	.	.
4G/)	4BB-\)	.	.	.
!!LO:LB:g=original
=9	=9	=9	=9	=9
(4A/	(2C#X\	2.rgg	8r	p
.	.	.	(8a\	.
2G/	.	.	4b-\	.
.	4En\	.	4c#X\	.
=10	=10	=10	=10	=10
2.A/	8F\L	2.rgg	4.d\	.
.	8E\	.	.	.
.	8F\	.	.	.
.	8D\	.	8f\L	.
.	8E\	.	8e\	.
.	8F\J)	.	8d\J)	.
=11	=11	=11	=11	=11
([2.A/)	(4G\	2.rgg	(8c#X\L	.
.	.	.	8e\J	.
.	2C#X\	.	4.a^\	.
.	.	.	8g\	.
=12	=12	=12	=12	=12
4A/]	2.D\)	2.rgg	8f\L	.
.	.	.	8g\	.
8G/L	.	.	8e\	.
8A/J	.	.	8f\J	.
4F/)	.	.	4d\)	.
=13	=13	=13	=13	=13
(4A/	(2.D\	8r	2f#X\	f
.	.	(8dd/	.	.
4c/	.	4ee-X/	.	.
8d/L	.	4f#/	4d\	.
8c/J	.	.	.	.
=14	=14	=14	=14	=14
8B-/L	2.G\	4.g/	4.d\	.
8A/	.	.	.	.
8B-/	.	.	.	.
8d/	.	8b-/L	8g\L	.
8c/	.	8a/	8f#X\	.
8B-/J)	.	8g/J)	8g\J	.
=15	=15	=15	=15	=15
[2c/	8A\L	(8f#X/L	8f#\L	.
.	8G\J	8a/J	[8a\J	.
.	8F#X\L	4.dd^/	8a\L]	<
.	8D\	.	8f#\	.
8c/L]	8E\	.	8g\	.
[8d/J	8F#\J	8cc/	8a\J	[[
=16	=16	=16	=16	=16
(4d/]	2.G\)	8b-/L	2.g\	.
.	.	8cc/	.	.
8c/L	.	8a/	.	.
8d/J	.	8b-/J	.	.
4B-/)	.	4g/)	.	.
!!LO:LB:g=original
=17	=17	=17	=17	=17
!	!	!	!	!LO:DY:a
(2c#X/	2.A\	8r	4e\	f
.	.	(8aa/	.	.
.	.	4bb-/	8g\L	.
.	.	.	8b-\J	.
4e/	.	4cc#X/	8a\L	.
.	.	.	8g\J	.
=18	=18	=18	=18	=18
2.d/)	2.D\	4.dd/	8g\L	.
.	.	.	8e\	.
.	.	.	8f\	.
.	.	8ff/L	8a\	.
.	.	8ee/	8g\	.
.	.	8dd/J)	8f\J	.
=19	=19	=19	=19	=19
(4g/	(4G\	8ff/	4b-\	.
.	.	4ee/	.	.
4f/	2A\	.	4a\	.
.	.	4dd/	.	.
4e/	.	.	[4g\	.
.	.	8cc#X/	.	.
=20	=20	=20	=20	=20
2.d/)	2.B-\)	[2.dd/	8g\L]	.
.	.	.	8f\	<
.	.	.	8e\	.
.	.	.	8f\	.
.	.	.	8g\	.
.	.	.	8g#X\J	[
=21	=21	=21	=21	=21
(2d/	(4F#X\	(8dd/L]	4a\	.
.	.	8cc/J	.	.
.	4G\	(8cc/	4g\	.
.	.	4b-^/)	.	.
4c/	4D\	.	4f#X\	.
.	.	8a/	.	.
=22	=22	=22	=22	=22
*	*	*	*	*^
8B-/L)	2.GG\)	2.b-/)	2.g\	.	.
(8D/	.	.	.	.	.
8C#X/	.	.	.	.	.
!	!	!	!	!LO:HP:b=2	!
8D/	.	.	.	<	.
8E/	.	.	.	.	.
8F#X/J	.	.	.	.	.
=23	=23	=23	=23	=23	=23
!	!	!	!	!	!LO:DY:a
8G/L	4r	8r	4rc	.	pp
8A/J	.	8a/	.	[	.
!	!	!	!	!	!LO:HP:a
4B-/)	8r	4b-/	4r	.	>
!	!	!	!	!LO:DY:b=2:rj	!
.	8EE\	.	.	p	.
(8A/L	4AA\	4c#X/	4A\	.	.
[8G/J	.	.	.	.	]]
*	*	*	*	*v	*v
=24	=24	=24	=24	=24
8G/L]	2.D;\	2.d;/	2.A\	pp
8G/	.	.	.	.
8F#X/	.	.	.	.
8E/J	.	.	.	.
4F#;/)	.	.	.	.
*v	*v	*	*	*
*	*v	*v	*
==	==	==
*-	*-	*-
!!!system-decoration: {(s1,s2)}
!!!EED: Andrzej Borzym
!!!EST: 2021-08-08
!!!ENC: Krzysztof Stępień
!!!END: 2021-07-26
